X: 3298
M: 6/8
L: 1/8
K: Em
E2F G2A | Bcd D2D | EFG BAF | E3 B2B, |\
E2E G2A | Bcd D2D | EFG BAF | E3 B2 :|
|: G |\


